X: 1442
T: Ne Müşkülmüş Seni Sevmek
C: Osman Nihat Akın
O: Turkey
F: http://compmusic.upf.edu/node/140
N: suzinak--sarki--curcuna--ne_muskulmus--osman_nihat_akin
N: makam= suzinak
N: form= sarki
N: usul= curcuna = 10/8
M: 10/8
L: 1/16
K: C _1/4B _7/8e ^f 
Q: 1/4=176
%%MIDI tuningsystem comma53
G8-G2B8z2  | c2d2 e2d2 c2B2 _7/8A2G6  | \
w:  ARANAĞME  |   | 
=f2_1/4e2 f2g2 _7/8a2g2 f2_7/8e4f2  | 
w:   | 
g4 _7/8a2g2 =f2e2 d2c2 B2_7/8A2  | \
w:   | 
G8-G2B8z2  | c2d2 e2d2 c2B2 _7/8A2G6  | 
w:   |   | 
g2f2 e2d2 c2B2 _7/8A2A4G2  | G16-G4  | \
w:   |   | 
G8-G2B8z2  | c2d2 e2d2 c2B2 _7/8A2G6  | 
w:  ARANAĞME  |   | 
=f2_1/4e2 f2g2 _7/8a2g2 f2_7/8e4f2  | \
w:   | 
g4 _7/8a2g2 =f2e2 d2c2 B2_7/8A2  | \
w:   | 
G8-G2B8z2  | 
w:   | 
c2d2 e2d2 c2B2 _7/8A2G6  | g2f2 e2d2 c2B2 _7/8A2A4G2  | G16-G4  | \
w:   |   |   | 
z4 g2f2 e2d2 c2B4d2  | 
w:  Ne  müş *  kül  | 
d6d2 eddc cBc4z2  | z4 d2e2 f2g3fe4d2  | \
w:  müş   |  se ni  *  sev  | 
d8-d2B4B6  | 
w:  mek   | 
c2B_7/8A G8-G2G6  | z4 g2f2 e2d2 c2d2 e2ed  | \
w:   |  sa na  *  yâr_ *  ol  | 
d8 B2c2 B_7/8AG4z2  | 
w:  mak   SAZ  | 
z4 g2f2 e2d2 c2B4d2  | d6d2 eddc cBc4z2  | \
w:  Ne  müş *  kül  |  müş   | 
z4 d2e2 f2g3fe4d2  | 
w:  se ni  *  sev  | 
d8-d2B4B6  | c2B_7/8A G8-G2G6  | z4 g2f2 e2d2 c2d2 e2ed  | \
w:  mek   |   |  sa na  *  yâr_ *  ol  | 
d8-d2e2 f2g4z2  | 
w:  mak   SAZ  | 
z4 f2g2 b2_7/8a8g2  | f6g3ffe ede4z2  | \
w:  Dil *  *  şâd   |   | 
f6g2 f2e2 d2c4d2  | 
w:  ol mak  *  is *  ter  | 
e2f2 e2f2 edd8-d2  | B8-B2c2 B_7/8AG6  | \
w:  ken   |  ah   | 
z4 g2f2 e2d2 c2d2 e2ed  | 
w:  pe ri *  şan_ *  ol  | 
d8-d2e2 f2g6  | z4 f2g2 b2_7/8a8g2  | \
w:  mak   SAZ  |  Dil *  *  şâd   | 
f6g3ffe ede4z2  | f6g2 f2e2 d2c4d2  | 
w:   |  ol mak  *  is *  ter  | 
e2f2 e2f2 edd8-d2  | B8-B2c2 B_7/8AG6  | \
w:  ken   |  ah   | 
z4 e2d2 c2B4cB _7/8A2AG  | 
w:  pe ri *  şan_ ol  | 
G6c4B2 d2c4z2  | z4 G2c4c2 {d}cBc4z2  | \
w:  mak   SAZ  |  Re va  mı  *  *  *  dır   | 
d6e2 dcB4B6  | cB_7/8A8A8G2  | 
w:  yâr_ o *  *  la  |   | 
G14G6  | c6d4e4f2 e2f2  | g3f e2d2 c2B2 d2c4z2  | \
w:  nın   |  kal bi  zâr  ol  |  mak   SAZ  | 
z4 G2c4c2 {d}cBc4z2  | 
w:  Re va  mı  *  *  *  dır   | 
d6e2 dcB4B6  | cB_7/8A8A8G2  | G14G6  | \
w:  yâr_ o *  *  la  |   |  nın   | 
c6d4e4f2 e2f2  | g8 d2e2 f2g4z2  | 
w:  kal bi  zâr  ol  |  mak   SAZ  | 
z4 f2g2 b2_7/8a8g2  | f6g3ffe ede4z2  | \
w:  Dil *  *  şâd   |   | 
f6g2 f2e2 d2c4d2  | 
w:  ol mak  *  is *  ter  | 
e2f2 e2f2 edd8-d2  | B8-B2c2 B_7/8AG6  | \
w:  ken   |  ah   | 
z4 g2f2 e2d2 c2d2 e2ed  | 
w:  pe ri *  şan_ *  ol  | 
d8-d2e2 f2g6  | z4 f2g2 b2_7/8a8g2  | \
w:  mak   SAZ  |  Dil *  *  şâd   | 
f6g3ffe ede4z2  | f6g2 f2e2 d2c4d2  | 
w:   |  ol mak  *  is *  ter  | 
e2f2 e2f2 edd8-d2  | B8-B2c2 B_7/8AG6  | \
w:  ken   |  ah   | 
z4 e2d2 c2B4cB _7/8A2AG  | 
w:  pe ri *  şan_ ol  | 
G4 e2d2 c2B2 _7/8A2G4z2  | |


